X:1
T:Epenetus
T:Epenetus
T:Frances Ridley Havergall ( 1836-1879)
T:Public Domain Courtesy of the Cyber Hymnal™
T:Public Domain Courtesy of the Cyber Hymnal™
C:Frances Ridley Havergall ( 1836-1879)
Z:Public Domain
Z:Courtesy of the Cyber Hymnal™
%%score ( 1 2 ) ( 3 4 )
L:1/8
M:none
K:A
V:1 treble 
V:2 treble 
V:3 bass 
V:4 bass 
V:1
 E3 E | [CA]3 [CG] [CA]2 [EB]2 [Ec]2 [GB]2 [Ac]2 [Bd]2 | [ce]4 [Ac]4 [EA]4 [Ac]3 [Ad] | %3
 [Ge]12 [GB]3 [FA] | [EG]12 E3 E | [CA]3 [B,G] [CA]2 [EB]2 [Ec]2 [GB]2 [Ac]2 [Bd]2 | %6
 [ce]4 [Ac]4 [EA]4 [Ac]3 [Ad] | [Ge]12 [GB]3 [Gc] | A12 A3 A | (d3 c B2 A2 =G2 F2) [DE]2 D2 | %10
 [CA]4 [DA]4 [CA]4 E3 E | [DF]3 [DG] [EA]2 [GB]2 [Ac]2 [Ae]2 [Gd]2 [Ac]2 | [FB]4 [EB]4 [CA]4 A3 A | %13
 d3 c B2 A2 =G2 F2 E2 D2 | [CA]4 [DA]4 [CA]4 E3 E | [DF]3 [CE] D2 [Fd]2 [=Gc]2 [GB]2 A2 [Fd]2 | %16
 [Af]2 [=Ge]2 [Fd]2 [Ec]2 [Fd]4 || [CA]3 [B,G] | [CA]3 [B,G] [CA]2 [EB]2 [Ec]2 [GB]2 [Ac]2 [Bd]2 | %19
 [ce]4 [Ac]4 [EA]4 [Ac]3 [Ad] | [Ge]12 E3 E | [EG]12 E3 E | %22
 [CA]3 [B,G] [CA]2 [EB]2 [Ec]2 [GB]2 [Ac]2 [Bd]2 | [ce]4 [Ac]4 [EA]4 [Ac]3 [Ad] | %24
 [Ge]12 [GB]3 [Gc] | A12 |] %26
V:2
 E3 E | x16 | x16 | x16 | x12 E3 E | x16 | x16 | x16 | A12 A3 A | D12 D2 x2 | x12 E3 E | x16 | %12
 x12 A3 A | d3 c B2 A2 =G2 F2 E2 D2 | x12 E3 E | x4 D2 x4 A2 x4 | x12 || x4 | x16 | x16 | %20
 x12 E3 E | x12 E3 E | x16 | x16 | x16 | A12 |] %26
V:3
 E,3 E, | [A,,A,]4 E,3 E, [A,,A,]4 [A,E]2 [A,D]2 | [A,C]4 [A,E]4 [A,C]4 A,3 A, | (D4 B,3 B,) E8- | %4
 ([E,E]4 [E,B,]3 [E,B,] [E,E]4) E,3 E, | [A,,A,]4 E,3 E, [A,,A,]4 [A,E]2 [A,D]2 | %6
 [A,C]4 [A,E]4 [A,C]4 A,3 A, | (E,4 B,3 B, E4) [E,D]3 [E,D] | [A,C]12 A,3 A, | %9
 (F,3 A, =G,2 F,2 B,2 A,2) [D,G,]2 [D,F,]2 | [A,,E,]4 [D,F,]4 [A,,E,]4 [C,A,]3 [C,A,] | %11
 [D,A,]3 [B,,D] [C,C]2 [E,B,]2 A,2 [C,A,]2 [B,,B,]2 [C,A,]2 | [D,A,]4 [E,G,]4 [A,,A,]4 A,3 A, | %13
 D3 C B,2 A,2 =G,2 F,2 E,2 D,2 | [A,,E,]4 [D,F,]4 [A,,E,]4 [C,A,]3 [C,A,] | %15
 [D,A,]3 [E,=G,] F,2 [D,A,]2 [G,B,]2 [G,D]2 [F,D]2 [D,D]2 | [A,,D]2 [A,,E]2 A,2 A,2 [D,A,]4 || %17
 E,3 E, | [A,,A,]4 E,3 E, [A,,A,]4 [A,E]2 [A,D]2 | [A,C]4 [A,E]4 [A,C]4 A,3 A, | (z4 B,3 B, E8-) | %21
 [E,E]4 [E,B,]3 [E,B,] [E,E]4 G,3 G, | [A,,A,]4 E,3 E, [A,,A,]4 [A,E]2 [A,D]2 | %23
 [A,C]4 [A,E]4 [A,C]4 A,3 A, | (E,4 B,3 B, E4) [E,D]3 [E,D] | [A,C]12 |] %26
V:4
 E,3 E, | x4 E,3 E, x8 | x16 | E,8- x8 | x12 E,3 E, | x4 E,3 E, x8 | x16 | x4 E,8- x4 | %8
 x12 A,3 A, | D,12 x4 | x16 | x8 A,2 x6 | x12 A,3 A, | D3 C B,2 A,2 =G,2 F,2 E,2 D,2 | x16 | %15
 x4 F,2 x10 | x4 A,2 A,2 x4 || E,3 E, | x4 E,3 E, x8 | x12 A,3 A, | E,8- x8 | x12 G,3 G, | %22
 x4 E,3 E, x8 | x12 A,3 A, | x4 E,8- x4 | x12 |] %26

